packages/icons/svg/Fill/list-in.svg

<svg fill="none" height="24" viewBox="0 0 24 24" width="24" xmlns="http://www.w3.org/2000/svg"><path clip-rule="evenodd" d="m10 4h-7c-.55 0-1 .45-1 1s.45 1 1 1h7c.55 0 1-.45 1-1s-.45-1-1-1zm0 7h-7c-.55 0-1 .45-1 1s.45 1 1 1h7c.55 0 1-.45 1-1s-.45-1-1-1zm-7 7h7c.55 0 1 .45 1 1s-.45 1-1 1h-7c-.55 0-1-.45-1-1s.45-1 1-1zm16.0002-10.35691 1.3051-1.26c.398-.383 1.031-.372 1.4139.025.3841.398.3731 1.031-.024 1.414l-3 2.89701c-.195.186-.445.28-.695.28-.256 0-.512-.097-.7069-.293l-3-3.00001c-.391-.39-.391-1.023 0-1.414.39-.39 1.0229-.39 1.4139 0l1.2929 1.29286-.0001-2.58495s0-1 1-1c1.0002 0 1.0002 1 1.0002 1zm-3.3052 9.97281 1.305-1.26v2.6431s0 1 1.0002 1c1 0 1-1 1-1l-.0001-2.5849 1.2929 1.2928c.391.39 1.024.39 1.414 0 .391-.391.391-1.024 0-1.414l-3-3c-.195-.196-.451-.293-.707-.293-.25 0-.5.094-.695.28l-3 2.897c-.397.383-.408 1.016-.024 1.414.383.397 1.016.408 1.414.025z" fill="#6b7280" fill-rule="evenodd"/></svg>

<svg width="24" height="24" viewBox="0 0 24 24" fill="none" xmlns="http://www.w3.org/2000/svg">
<g id="Icon/Outline/ListIn">
<path id="Union" fill-rule="evenodd" clip-rule="evenodd" d="M10 4H3C2.45 4 2 4.45 2 5C2 5.55 2.45 6 3 6H10C10.55 6 11 5.55 11 5C11 4.45 10.55 4 10 4ZM10 11H3C2.45 11 2 11.45 2 12C2 12.55 2.45 13 3 13H10C10.55 13 11 12.55 11 12C11 11.45 10.55 11 10 11ZM3 18H10C10.55 18 11 18.45 11 19C11 19.55 10.55 20 10 20H3C2.45 20 2 19.55 2 19C2 18.45 2.45 18 3 18ZM19.0002 7.64309L20.3053 6.38309C20.7033 6.00009 21.3363 6.01109 21.7192 6.40809C22.1033 6.80609 22.0923 7.43909 21.6952 7.82209L18.6952 10.7191C18.5002 10.9051 18.2502 10.9991 18.0002 10.9991C17.7442 10.9991 17.4882 10.9021 17.2933 10.7061L14.2933 7.70609C13.9023 7.31609 13.9023 6.68309 14.2933 6.29209C14.6833 5.90209 15.3162 5.90209 15.7072 6.29209L17.0001 7.58495L17 5C17 5 17 4 18 4C19.0002 4 19.0002 5 19.0002 5V7.64309ZM15.695 17.6159L17 16.3559V18.999C17 18.999 17 19.999 18.0002 19.999C19.0002 19.999 19.0002 18.999 19.0002 18.999L19.0001 16.4141L20.293 17.7069C20.684 18.0969 21.317 18.0969 21.707 17.7069C22.098 17.3159 22.098 16.6829 21.707 16.2929L18.707 13.2929C18.512 13.0969 18.256 12.9999 18 12.9999C17.75 12.9999 17.5 13.0939 17.305 13.2799L14.305 16.1769C13.908 16.5599 13.897 17.1929 14.281 17.5909C14.664 17.9879 15.297 17.9989 15.695 17.6159Z" fill="#000000"/>
</g>
</svg>
